papirus/32x32/apps/kreversi.svg

<svg height="32" width="32" xmlns="http://www.w3.org/2000/svg"><path d="m16.77 30c7.3038 0 13.226-6.2686 13.226-14 0-7.7314-5.922-14-13.226-14-3.7415 0-6.7742 2.4343-6.7742 6.3 0 3.8657 3.284 6.0501 6.4286 7 3.0747.92876 7.1198 3.8343 7.1198 7.7 0 3.8657-3.0327 7-6.7742 7z" fill="#f65e5e"/><circle cx="-17.000008" cy="-9.999999" opacity=".2" r="3" transform="scale(-1)"/><circle cx="-17.000008" cy="-9.000001" fill="#fff" r="3" transform="scale(-1)"/><path d="m15.22 2c-7.3038 0-13.226 6.2686-13.226 14 0 7.7314 5.922 14 13.226 14 3.7415 0 6.7742-2.4343 6.7742-6.3 0-3.8657-3.284-6.0501-6.4286-7-3.0747-.92876-7.1198-3.8343-7.1198-7.7 0-3.8657 3.0327-7 6.7742-7z" fill="#8d62ad"/><circle cx="15.000009" cy="24" opacity=".2" r="3"/><circle cx="15.000009" cy="23.000002" fill="#fff" r="3"/><path d="m12.422 2.3477c-.635.1451-1.253.3327-1.85.5703-1.3047 1.2757-2.1208 3.0793-2.1208 5.082 0 .1403.0169.2763.0273.4141.1792-2.2314 1.3688-4.1658 3.0975-5.3106.257-.2773.54-.5298.846-.7558zm-2.397 5.4394c-.012.1695-.025.3382-.025.5137 0 3.8652 3.283 6.0502 6.428 7.0002 2.963.895 6.817 3.628 7.093 7.285.016-.193.028-.388.028-.586 0-3.866-4.047-6.77-7.121-7.699-3.009-.909-6.138-2.953-6.403-6.5139zm-8.0016 7.7069c-.0057.169-.0234.335-.0234.506 0 7.731 5.9227 14 13.227 14 1.657 0 3.174-.479 4.351-1.348-.687.157-1.389.271-2.111.311 1.081-.114 2.086-.49 2.957-1.067.983-1.062 1.576-2.489 1.576-4.197 0-.166-.013-.326-.025-.486-.259 3.564-3.177 5.787-6.748 5.787-7.1467 0-12.956-6.005-13.204-13.506zm27.954.012c-.196 5.773-3.687 10.642-8.549 12.576-1.057 1.033-2.433 1.721-3.961 1.881 6.98-.384 12.533-6.479 12.533-13.963 0-.167-.018-.329-.023-.494z" opacity=".3"/><path d="m16.773 2c-1.657 0-3.174.4792-4.351 1.3477.687-.1572 1.389-.2709 2.111-.3106-1.081.1135-2.086.4901-2.957 1.0664-.983 1.0627-1.576 2.4898-1.576 4.1973 0 .1666.013.3259.025.4863.259-3.5642 3.177-5.7871 6.748-5.7871 7.147 0 12.956 6.0052 13.204 13.506.005-.169.023-.335.023-.506 0-7.7314-5.923-14-13.227-14zm-2.24.0371c-6.9796.3838-12.533 6.479-12.533 13.963 0 .167.018.329.0234.494.1954-5.773 3.6863-10.642 8.5486-12.576 1.057-1.0328 2.433-1.7205 3.961-1.8809zm-6.0545 7.377c-.0155.1934-.0273.3884-.0273.5859 0 3.866 4.0468 6.77 7.1208 7.699 3.009.909 6.138 2.953 6.403 6.514.012-.17.025-.338.025-.514 0-3.865-3.283-6.05-6.428-7-2.963-.895-6.8167-3.628-7.0935-7.2849zm15.042 14.172c-.179 2.231-1.368 4.166-3.097 5.31-.257.278-.54.53-.846.756.635-.145 1.253-.332 1.85-.57 1.305-1.276 2.121-3.079 2.121-5.082 0-.14-.017-.276-.028-.414z" fill="#fff" opacity=".2"/></svg>

<?xml version="1.0" encoding="UTF-8" standalone="no"?>
<!-- Created with Inkscape (http://www.inkscape.org/) -->

<svg
   xmlns:dc="http://purl.org/dc/elements/1.1/"
   xmlns:cc="http://creativecommons.org/ns#"
   xmlns:rdf="http://www.w3.org/1999/02/22-rdf-syntax-ns#"
   xmlns:svg="http://www.w3.org/2000/svg"
   xmlns="http://www.w3.org/2000/svg"
   xmlns:sodipodi="http://sodipodi.sourceforge.net/DTD/sodipodi-0.dtd"
   xmlns:inkscape="http://www.inkscape.org/namespaces/inkscape"
   id="svg4125"
   height="32"
   width="32"
   version="1.1"
   inkscape:version="0.91 r13725"
   sodipodi:docname="kreversi.svg">
  <sodipodi:namedview
     pagecolor="#ffffff"
     bordercolor="#666666"
     borderopacity="1"
     objecttolerance="10"
     gridtolerance="10"
     guidetolerance="10"
     inkscape:pageopacity="0"
     inkscape:pageshadow="2"
     inkscape:window-width="1600"
     inkscape:window-height="849"
     id="namedview16"
     showgrid="false"
     inkscape:zoom="8.53"
     inkscape:cx="-11.661017"
     inkscape:cy="16"
     inkscape:window-x="0"
     inkscape:window-y="0"
     inkscape:window-maximized="1"
     inkscape:current-layer="svg4125" />
  <defs
     id="defs4127">
    <radialGradient
       id="radialGradient4334"
       gradientUnits="userSpaceOnUse"
       cy="61.25"
       cx="11.312"
       gradientTransform="matrix(5.1492598,0,0,2.6374,-313.25435,-129.97)"
       r="11.375">
      <stop
         id="stop4819-3"
         stop-color="#fff"
         offset="0" />
      <stop
         id="stop4821-66"
         stop-color="#fff"
         stop-opacity="0"
         offset="1" />
    </radialGradient>
  </defs>
  <metadata
     id="metadata4130">
    <rdf:RDF>
      <cc:Work
         rdf:about="">
        <dc:format>image/svg+xml</dc:format>
        <dc:type
           rdf:resource="http://purl.org/dc/dcmitype/StillImage" />
        <dc:title />
      </cc:Work>
    </rdf:RDF>
  </metadata>
  <path
     style="fill:#f65e5e"
     inkscape:connector-curvature="0"
     d="M 16.77,30 C 24.0738,30 29.996,23.7314 29.996,16 29.996,8.2686 24.074,2 16.77,2 13.0285,2 9.9958,4.4343 9.9958,8.3 c 0,3.8657 3.284,6.0501 6.4286,7 3.0747,0.92876 7.1198,3.8343 7.1198,7.7 0,3.8657 -3.0327,7 -6.7742,7 z"
     id="path5092" />
  <circle
     id="circle4151"
     transform="scale(-1,-1)"
     cy="-9.999999"
     cx="-17.000008"
     r="3"
     style="opacity:0.2;fill:#000000;fill-opacity:1" />
  <circle
     style="fill:#ffffff"
     r="3"
     cx="-17.000008"
     cy="-9.000001"
     transform="scale(-1,-1)"
     id="circle5094" />
  <path
     style="fill:#8d62ad"
     inkscape:connector-curvature="0"
     d="M 15.22,2 C 7.9162,2 1.994,8.2686 1.994,16 c 0,7.7314 5.922,14 13.226,14 3.7415,0 6.7742,-2.4343 6.7742,-6.3 0,-3.8657 -3.284,-6.0501 -6.4286,-7 C 12.4909,15.77124 8.4458,12.8657 8.4458,9 c 0,-3.8657 3.0327,-7 6.7742,-7 z"
     id="path4559-2" />
  <circle
     id="circle4153"
     cx="15.000009"
     cy="24"
     r="3"
     style="opacity:0.2;fill:#000000;fill-opacity:1" />
  <circle
     style="fill:#ffffff"
     r="3"
     cy="23.000002"
     cx="15.000009"
     id="path5012" />
  <path
     style="opacity:0.3"
     inkscape:connector-curvature="0"
     d="M 12.422,2.3477 C 11.787,2.4928 11.169,2.6804 10.572,2.918 9.2673,4.1937 8.4512,5.9973 8.4512,8 c 0,0.1403 0.0169,0.2763 0.0273,0.4141 C 8.6577,6.1827 9.8473,4.2483 11.576,3.1035 11.833,2.8262 12.116,2.5737 12.422,2.3477 Z M 10.025,7.7871 C 10.013,7.9566 10,8.1253 10,8.3008 c 0,3.8652 3.283,6.0502 6.428,7.0002 2.963,0.895 6.817,3.628 7.093,7.285 0.016,-0.193 0.028,-0.388 0.028,-0.586 0,-3.866 -4.047,-6.77 -7.121,-7.699 C 13.419,13.392 10.29,11.348 10.025,7.7871 Z M 2.0234,15.494 C 2.0177,15.663 2,15.829 2,16 c 0,7.731 5.9227,14 13.227,14 1.657,0 3.174,-0.479 4.351,-1.348 -0.687,0.157 -1.389,0.271 -2.111,0.311 1.081,-0.114 2.086,-0.49 2.957,-1.067 C 21.407,26.834 22,25.407 22,23.699 22,23.533 21.987,23.373 21.975,23.213 21.716,26.777 18.798,29 15.227,29 8.0803,29 2.271,22.995 2.023,15.494 Z m 27.954,0.012 c -0.196,5.773 -3.687,10.642 -8.549,12.576 -1.057,1.033 -2.433,1.721 -3.961,1.881 6.98,-0.384 12.533,-6.479 12.533,-13.963 0,-0.167 -0.018,-0.329 -0.023,-0.494 z"
     id="path5100" />
  <path
     style="opacity:0.2;fill:#ffffff"
     inkscape:connector-curvature="0"
     d="M 16.773,2 C 15.116,2 13.599,2.4792 12.422,3.3477 13.109,3.1905 13.811,3.0768 14.533,3.0371 13.452,3.1506 12.447,3.5272 11.576,4.1035 10.593,5.1662 10,6.5933 10,8.3008 10,8.4674 10.013,8.6267 10.025,8.7871 10.284,5.2229 13.202,3 16.773,3 23.92,3 29.729,9.0052 29.977,16.506 29.982,16.337 30,16.171 30,16 30,8.2686 24.077,2 16.773,2 Z m -2.24,0.0371 C 7.5534,2.4209 2,8.5161 2,16.0001 c 0,0.167 0.018,0.329 0.0234,0.494 0.1954,-5.773 3.6863,-10.642 8.5486,-12.576 1.057,-1.0328 2.433,-1.7205 3.961,-1.8809 z M 8.4785,9.4141 C 8.463,9.6075 8.4512,9.8025 8.4512,10 c 0,3.866 4.0468,6.77 7.1208,7.699 3.009,0.909 6.138,2.953 6.403,6.514 0.012,-0.17 0.025,-0.338 0.025,-0.514 0,-3.865 -3.283,-6.05 -6.428,-7 C 12.609,15.804 8.7553,13.071 8.4785,9.4141 Z m 15.042,14.172 c -0.179,2.231 -1.368,4.166 -3.097,5.31 -0.257,0.278 -0.54,0.53 -0.846,0.756 0.635,-0.145 1.253,-0.332 1.85,-0.57 1.305,-1.276 2.121,-3.079 2.121,-5.082 0,-0.14 -0.017,-0.276 -0.028,-0.414 z"
     id="path5105" />
</svg>
